X:645
T:Battle Hymn of the Republic, The
S:Memory
Z:Nigel Gatherer
L:1/8
M:4/4
K:D
A  | A>A A>G F>A d>e | f>f f>e d2 d>c |
     B>B B>c d>c d>B | A>B A>F A2 A>A |
     A>A A>G F>A d>e | f>f f>e d2 d2  |
     e2  e2  d2  c2  | d4      z4     |
     A3    G F>A d>e | f4      d4     |
     B3    c d>c d>B | A4      F4     |
     A3    G F>A d>e | f4      d2 d2  |
     e2  e2  d2  c2  | d6         z2 |]
